svg/k8s-serviceaccount.svg

<?xml version="1.0" encoding="UTF-8"?>
<svg xmlns="http://www.w3.org/2000/svg" xmlns:xlink="http://www.w3.org/1999/xlink" width="32.978001" height="32" viewBox="0 0 32.978001 32">
<path fill-rule="nonzero" fill="rgb(19.607843%, 42.352941%, 89.803922%)" fill-opacity="1" d="M 16.378906 0.847656 C 16.105469 0.863281 15.835938 0.933594 15.585938 1.046875 L 4.722656 6.238281 C 4.15625 6.507812 3.742188 7.023438 3.601562 7.636719 L 0.921875 19.292969 C 0.78125 19.902344 0.925781 20.546875 1.320312 21.035156 L 8.839844 30.382812 C 9.234375 30.871094 9.832031 31.15625 10.460938 31.15625 L 22.515625 31.152344 C 23.148438 31.152344 23.746094 30.871094 24.140625 30.378906 L 31.65625 21.03125 C 32.050781 20.542969 32.199219 19.902344 32.058594 19.289062 L 29.375 7.632812 C 29.234375 7.019531 28.820312 6.503906 28.25 6.234375 L 17.386719 1.046875 C 17.074219 0.898438 16.726562 0.828125 16.378906 0.847656 M 16.378906 0.847656 "/>
<path fill-rule="nonzero" fill="rgb(100%, 100%, 100%)" fill-opacity="1" d="M 16.375 0.00390625 C 16.082031 0.0195312 15.796875 0.0898438 15.535156 0.214844 L 4.070312 5.695312 C 3.46875 5.980469 3.03125 6.523438 2.882812 7.167969 L 0.0546875 19.472656 C -0.078125 20.046875 0.03125 20.648438 0.351562 21.140625 C 0.390625 21.203125 0.433594 21.257812 0.476562 21.3125 L 8.414062 31.183594 C 8.832031 31.699219 9.464844 32 10.128906 32 L 22.851562 31.996094 C 23.519531 31.996094 24.152344 31.695312 24.566406 31.179688 L 32.5 21.3125 C 32.914062 20.796875 33.070312 20.117188 32.921875 19.472656 L 30.089844 7.164062 C 29.9375 6.519531 29.503906 5.976562 28.90625 5.691406 L 17.4375 0.214844 C 17.105469 0.0585938 16.742188 -0.015625 16.375 0.00390625 M 16.378906 0.847656 C 16.726562 0.828125 17.074219 0.898438 17.386719 1.046875 L 28.25 6.234375 C 28.816406 6.507812 29.230469 7.019531 29.375 7.632812 L 32.058594 19.289062 C 32.199219 19.902344 32.050781 20.542969 31.65625 21.03125 L 24.140625 30.378906 C 23.746094 30.871094 23.148438 31.15625 22.515625 31.152344 L 10.460938 31.15625 C 9.828125 31.15625 9.230469 30.871094 8.839844 30.382812 L 1.320312 21.035156 C 0.925781 20.546875 0.78125 19.902344 0.921875 19.292969 L 3.601562 7.636719 C 3.742188 7.023438 4.15625 6.507812 4.722656 6.238281 L 15.585938 1.046875 C 15.832031 0.929688 16.105469 0.859375 16.378906 0.847656 M 16.492188 6.96875 L 9.101562 10.25 L 9.101562 15.179688 C 9.101562 19.734375 12.253906 23.996094 16.492188 25.03125 C 20.726562 23.996094 23.878906 19.734375 23.878906 15.179688 L 23.878906 10.25 Z M 16.492188 10.445312 C 17.449219 10.445312 18.308594 11.023438 18.671875 11.90625 C 19.039062 12.789062 18.835938 13.808594 18.160156 14.484375 C 17.484375 15.160156 16.46875 15.363281 15.585938 14.996094 C 14.546875 14.5625 13.960938 13.453125 14.179688 12.351562 C 14.398438 11.246094 15.367188 10.449219 16.492188 10.445312 M 20.921875 20.226562 C 20.921875 20.285156 20.902344 20.339844 20.871094 20.390625 C 20.816406 20.472656 20.765625 20.554688 20.707031 20.628906 C 19.664062 22.066406 18.1875 23.128906 16.492188 23.65625 C 14.699219 23.101562 13.152344 21.949219 12.105469 20.390625 C 12.074219 20.34375 12.054688 20.285156 12.054688 20.226562 L 12.054688 18.914062 C 12.054688 17.101562 15.011719 16.1875 16.492188 16.1875 C 17.96875 16.1875 20.921875 17.101562 20.921875 18.914062 Z M 20.921875 20.226562 "/>
</svg>

<svg role="img" viewBox="0 0 32.978 32" xmlns="http://www.w3.org/2000/svg"><path d="M16.379.848a2.1 2.1 0 0 0-.793.199L4.723 6.238a2.06 2.06 0 0 0-1.121 1.399L.922 19.293c-.14.61.004 1.254.398 1.742l7.52 9.348c.394.488.992.773 1.62.773l12.056-.004c.632 0 1.23-.28 1.625-.773l7.515-9.348a2.04 2.04 0 0 0 .403-1.742L29.375 7.633a2.06 2.06 0 0 0-1.125-1.399L17.387 1.047a2.1 2.1 0 0 0-1.008-.2m0 0" fill="rgb(19.607843%, 42.352942%, 89.803922%)"/><path d="M16.375.004a2.2 2.2 0 0 0-.84.21L4.07 5.696a2.17 2.17 0 0 0-1.187 1.473L.055 19.473a2.16 2.16 0 0 0 .297 1.668q.06.091.125.172l7.937 9.87a2.21 2.21 0 0 0 1.715.817l12.723-.004c.668 0 1.3-.3 1.714-.816l7.934-9.867c.414-.516.57-1.196.422-1.84L30.09 7.164a2.19 2.19 0 0 0-1.184-1.473L17.438.215a2.2 2.2 0 0 0-1.063-.211m.004.844c.348-.02.695.05 1.008.199L28.25 6.234c.566.274.98.786 1.125 1.399l2.684 11.656a2.04 2.04 0 0 1-.403 1.742l-7.515 9.348a2.07 2.07 0 0 1-1.625.773l-12.055.004c-.633 0-1.23-.285-1.621-.773l-7.52-9.348a2.04 2.04 0 0 1-.398-1.742l2.68-11.656a2.06 2.06 0 0 1 1.12-1.399l10.864-5.191c.246-.117.52-.188.793-.2m.113 6.122-7.39 3.281v4.93c0 4.554 3.152 8.816 7.39 9.851 4.235-1.035 7.387-5.297 7.387-9.851v-4.93Zm0 3.476c.957 0 1.817.578 2.18 1.461a2.365 2.365 0 0 1-.512 2.578 2.36 2.36 0 0 1-2.574.512 2.367 2.367 0 0 1 .906-4.55m4.43 9.78c0 .06-.02.114-.05.165-.056.082-.106.164-.165.238a8.23 8.23 0 0 1-4.215 3.027 8.2 8.2 0 0 1-4.387-3.265.3.3 0 0 1-.05-.164v-1.313c0-1.812 2.957-2.727 4.437-2.727 1.477 0 4.43.915 4.43 2.727Zm0 0" fill="rgb(100%, 100%, 100%)"/></svg>
